packages/katcn/src/icons/svg/thunder-solid.svg

<svg width="24" height="25" viewBox="0 0 24 25" fill="none" xmlns="http://www.w3.org/2000/svg">
<path d="M15.2 16.968C19.5 16.968 23 13.568 23 9.46802C23 5.36802 19.5 1.96802 15.2 1.96802C12.4 1.96802 9.9 3.36802 8.5 5.66802C8 5.46802 7.5 5.46802 7 5.46802C3.7 5.46802 1 8.06802 1 11.268C1 14.368 3.7 16.968 6.9 16.968L7.9 15.968L8.9 14.968L9.7 14.168C10.1 13.768 10.7 13.768 11.1 14.168C11.3 14.368 11.4 14.668 11.4 14.968C11.4 15.268 11.3 15.468 11.1 15.668L10.8 15.968L9.9 16.968L8.6 18.268C8.3 18.568 8.2 18.968 8.4 19.368C8.5 19.768 8.9 19.968 9.3 19.968H12.4L10.1 22.268C9.7 22.668 9.7 23.268 10.1 23.668C10.3 23.868 10.5 23.968 10.8 23.968C11.1 23.968 11.3 23.868 11.5 23.668L15.5 19.668C15.8 19.368 15.9 18.968 15.7 18.568C15.5 18.168 15.2 17.968 14.8 17.968H11.7L12.7 16.968H15.2Z" fill="black"/>
</svg>

<svg xmlns="http://www.w3.org/2000/svg" fill="none" viewBox="0 0 24 25"><path fill="#000" d="M15.2 16.968c4.3 0 7.8-3.4 7.8-7.5s-3.5-7.5-7.8-7.5c-2.8 0-5.3 1.4-6.7 3.7-.5-.2-1-.2-1.5-.2-3.3 0-6 2.6-6 5.8 0 3.1 2.7 5.7 5.9 5.7l1-1 1-1 .8-.8c.4-.4 1-.4 1.4 0 .2.2.3.5.3.8s-.1.5-.3.7l-.3.3-.9 1-1.3 1.3c-.3.3-.4.7-.2 1.1.1.4.5.6.9.6h3.1l-2.3 2.3c-.4.4-.4 1 0 1.4.2.2.4.3.7.3s.5-.1.7-.3l4-4c.3-.3.4-.7.2-1.1q-.3-.6-.9-.6h-3.1l1-1z"/></svg>
